storage/app/icons/phosphoricons/regular/gps-slash.svg

<svg xmlns="http://www.w3.org/2000/svg" fill="currentColor" viewBox="0 0 256 256"><path d="M248 128a8 8 0 0 1-8 8h-24.36a87 87 0 0 1-7.33 28 8 8 0 0 1-7.3 4.73 7.9 7.9 0 0 1-3.27-.71 8 8 0 0 1-4-10.57 72.06 72.06 0 0 0-88.81-97.69 8 8 0 1 1-5.13-15.15 87.2 87.2 0 0 1 20.2-4.24V16a8 8 0 0 1 16 0v24.37A88.13 88.13 0 0 1 215.63 120H240a8 8 0 0 1 8 8m-34.08 82.62a8 8 0 1 1-11.84 10.76L181 198.23a87.7 87.7 0 0 1-45 17.4V240a8 8 0 0 1-16 0v-24.37A88.13 88.13 0 0 1 40.37 136H16a8 8 0 0 1 0-16h24.37a88.3 88.3 0 0 1 22.77-51.46L42.08 45.38a8 8 0 1 1 11.84-10.76Zm-43.72-24.3L74 80.45a72 72 0 0 0 96.2 105.87"/></svg>

<svg xmlns="http://www.w3.org/2000/svg" viewBox="0 0 256 256" fill="currentColor"><path d="M248,128a8,8,0,0,1-8,8H215.64a87,87,0,0,1-7.33,28,8,8,0,0,1-7.3,4.73,7.9,7.9,0,0,1-3.27-.71,8,8,0,0,1-4-10.57,72.06,72.06,0,0,0-88.81-97.69,8,8,0,1,1-5.13-15.15A87.21,87.21,0,0,1,120,40.37V16a8,8,0,0,1,16,0V40.37A88.13,88.13,0,0,1,215.63,120H240A8,8,0,0,1,248,128Zm-34.08,82.62a8,8,0,1,1-11.84,10.76L181,198.23a87.69,87.69,0,0,1-45,17.4V240a8,8,0,0,1-16,0V215.63A88.13,88.13,0,0,1,40.37,136H16a8,8,0,0,1,0-16H40.37A88.31,88.31,0,0,1,63.14,68.54L42.08,45.38A8,8,0,1,1,53.92,34.62Zm-43.72-24.3L74,80.45A72,72,0,0,0,170.2,186.32Z"/></svg>
